src/icons/svg/Reports.svg

<svg width="24" height="24" viewBox="0 0 24 24" fill="none" xmlns="http://www.w3.org/2000/svg">
<g clip-path="url(#clip0)">
<path d="M8.25 7.50201H14.25C14.663 7.50201 15 7.16601 15 6.75201C15 6.33801 14.663 6.00201 14.25 6.00201H8.25C7.836 6.00201 7.5 6.33801 7.5 6.75201C7.5 7.16601 7.836 7.50201 8.25 7.50201ZM3 4.50201C2.172 4.50201 1.5 5.17201 1.5 6.00201V22.5C1.5 23.33 2.172 24.002 3 24.002H19.5C20.33 24.002 21 23.33 21 22.501H3V4.50301V4.50201ZM18.75 10.502H8.25C7.836 10.502 7.5 10.838 7.5 11.252C7.5 11.665 7.836 12.002 8.25 12.002H18.75C19.163 12.002 19.5 11.664 19.5 11.252C19.5 10.838 19.163 10.502 18.75 10.502ZM18.75 15.002H8.25C7.836 15.002 7.5 15.338 7.5 15.752C7.5 16.165 7.836 16.502 8.25 16.502H18.75C19.163 16.502 19.5 16.165 19.5 15.752C19.5 15.338 19.163 15.002 18.75 15.002V15.002ZM21 1.50101H6C5.172 1.50101 4.5 2.17101 4.5 3.00101V19.501C4.5 20.329 5.172 21.001 6 21.001H21C21.83 21.001 22.5 20.329 22.5 19.501V3.00101C22.5 2.17201 21.83 1.50101 21 1.50101V1.50101ZM21 18.752C21 19.165 20.663 19.502 20.25 19.502H6.75C6.336 19.502 6 19.165 6 18.752V3.75201C6 3.33801 6.336 3.00201 6.75 3.00201H20.25C20.663 3.00201 21 3.33801 21 3.75201V18.752Z" fill="#1C2125"/>
</g>
<defs>
<clipPath id="clip0">
<rect width="24" height="24" fill="white"/>
</clipPath>
</defs>
</svg>

<!-- Generated by IcoMoon.io -->
<svg version="1.1" xmlns="http://www.w3.org/2000/svg" width="24" height="24" viewBox="0 0 24 24">
<title>reports</title>
<path fill="#444" d="M8.25 7.502h6c0.413 0 0.75-0.336 0.75-0.75s-0.337-0.75-0.75-0.75h-6c-0.414 0-0.75 0.336-0.75 0.75s0.336 0.75 0.75 0.75zM3 4.502c-0.828 0-1.5 0.67-1.5 1.5v16.498c0 0.83 0.672 1.502 1.5 1.502h16.5c0.83 0 1.5-0.672 1.5-1.501h-18v-17.998zM18.75 10.502h-10.5c-0.414 0-0.75 0.336-0.75 0.75 0 0.413 0.336 0.75 0.75 0.75h10.5c0.413 0 0.75-0.338 0.75-0.75 0-0.414-0.337-0.75-0.75-0.75zM18.75 15.002h-10.5c-0.414 0-0.75 0.336-0.75 0.75 0 0.413 0.336 0.75 0.75 0.75h10.5c0.413 0 0.75-0.337 0.75-0.75 0-0.414-0.337-0.75-0.75-0.75zM21 1.501h-15c-0.828 0-1.5 0.67-1.5 1.5v16.5c0 0.828 0.672 1.5 1.5 1.5h15c0.83 0 1.5-0.672 1.5-1.5v-16.5c0-0.829-0.67-1.5-1.5-1.5zM21 18.752c0 0.413-0.337 0.75-0.75 0.75h-13.5c-0.414 0-0.75-0.337-0.75-0.75v-15c0-0.414 0.336-0.75 0.75-0.75h13.5c0.413 0 0.75 0.336 0.75 0.75v15z"></path>
</svg>
